images/cotacao/cow.svg

<?xml version="1.0" encoding="UTF-8"?>  <svg xmlns="http://www.w3.org/2000/svg" xmlns:xlink="http://www.w3.org/1999/xlink" id="Capa_1" x="0px" y="0px" viewBox="0 0 512.001 512.001" style="enable-background:new 0 0 512.001 512.001;" xml:space="preserve"> <g> <g> <path d="M387.448,287.746h-0.205c-5.523,0-9.999,4.477-9.999,9.999c0,5.523,4.477,9.999,9.999,9.999h0.205 c5.523,0,9.999-4.477,9.999-9.999C397.447,292.223,392.971,287.746,387.448,287.746z"></path> </g> </g> <g> <g> <path d="M445.528,287.746h-0.205c-5.523,0-9.999,4.477-9.999,9.999c0,5.523,4.477,9.999,9.999,9.999h0.205 c5.523,0,9.999-4.477,9.999-9.999C455.528,292.223,451.051,287.746,445.528,287.746z"></path> </g> </g> <g> <g> <path d="M228.368,396.989h-0.13c-5.523,0-9.999,4.477-9.999,9.999s4.477,9.999,9.999,9.999h0.13c5.523,0,9.999-4.477,9.999-9.999 S233.89,396.989,228.368,396.989z"></path> </g> </g> <g> <g> <path d="M501.96,396.988H375.944v-25.885c0-8.202,1.687-16.215,4.925-23.628c2.199,3.185,3.201,7.046,3.201,13.69 c0,18.408,19.654,25.657,31.268,27.039c0.392,0.046,0.786,0.07,1.181,0.07c1.368,0,8.37-0.956,15.257-3.989 c14.959-6.589,17.193-17.314,17.193-23.12c0-12.378,3.434-15.124,11.73-21.757c3.068-2.453,6.544-5.233,10.164-8.852 c3.848-3.847,9.248-11.999,11.729-38.265c0.593-6.276,0.891-12.218,1.041-16.782c5.58-1.476,12.622-4.502,18.418-10.697 c7.307-7.812,10.618-18.381,9.84-31.41c-0.185-3.093-1.666-5.964-4.226-7.707c-2.561-1.744-5.66-2.241-8.603-1.281 c-3.003,0.858-6.043,0.771-9.036-0.26c-0.12-0.042-0.243-0.074-0.363-0.114c2.229-6.43,2.981-13.233,2.119-20.046 c-1.419-11.212-7.23-21.693-15.168-27.354c-2.978-2.124-6.88-2.451-10.171-0.855c-3.292,1.598-5.448,4.866-5.623,8.52 c-0.319,6.693-2.631,11.647-5.647,15.302l-3.972-12.302c-17.824-55.203-68.772-92.291-126.782-92.291H169.702h-20.537h-48.659 c-46.582,0-84.479,37.897-84.479,84.479v84.704C6.624,268.48,0,278.612,0,290.403c0,6.573,2.174,17.196,5.287,25.831 c5.126,14.221,12.104,21.431,20.739,21.431s15.614-7.21,20.739-21.431c3.113-8.635,5.287-19.257,5.287-25.831 c0-11.791-6.624-21.923-16.027-26.207v-84.704c0-30.182,20.847-55.577,48.897-62.566c-3.335,2.586-6.536,5.386-9.584,8.395 c-11.323,11.181-19.823,24.66-25.078,39.321c-0.132,0.288-0.253,0.584-0.359,0.889c-12.785,36.82-4.388,77.121,21.868,105.613 c0.009,0.01,0.017,0.019,0.026,0.029c0.369,0.4,0.728,0.806,1.104,1.201c0.089,0.094,0.187,0.176,0.28,0.265 c3.382,3.543,7.022,6.87,10.916,9.942c9.614,7.583,15.154,18.956,15.199,31.202l0.302,83.207H9.999 c-5.523,0-9.999,4.477-9.999,9.999c0,5.523,4.477,9.999,9.999,9.999h183.712c5.523,0,9.999-4.477,9.999-9.999 c0-5.523-4.477-9.999-9.999-9.999h-10.024v-25.886c0-11.799,3.481-23.21,10.067-32.998c4.725-7.021,8.228-14.644,10.495-22.718 h72.486c2.267,8.074,5.771,15.696,10.495,22.718c6.586,9.79,10.067,21.201,10.067,32.999v25.885h-34.987 c-5.523,0-9.999,4.477-9.999,9.999c0,5.523,4.477,9.999,9.999,9.999h44.976c0.003,0,0.006,0,0.01,0h29.312h0.022h29.312 c0.003,0,0.006,0,0.01,0H501.96c5.523,0,9.999-4.477,9.999-9.999C511.959,401.466,507.482,396.988,501.96,396.988z M26.026,314.205c-2.972-6.349-6.028-17.642-6.028-23.802c0-4.549,2.76-8.391,6.028-8.391c3.268,0,6.027,3.843,6.027,8.391 C32.053,296.564,28.998,307.857,26.026,314.205z M428.969,361.166c0,3.289-7.53,6.092-12.451,6.993 c-4.921-0.901-12.451-3.705-12.451-6.993c0-1.444-0.045-2.823-0.126-4.148h25.153 C429.013,358.343,428.969,359.722,428.969,361.166z M472.121,210.316c-0.121,3.842-1.191,8.497-4.409,13.314 c-1.617-1.373-3.287-2.673-4.999-3.905C466.097,217.169,469.339,214.061,472.121,210.316z M294.524,115.01 c-11.546,18.552-32.018,30.286-54.546,30.286c-22.527,0-43-11.734-54.546-30.286H294.524z M96.162,255.483H84.613 c-12.078-14.079-19.341-31.858-20.389-50.67c-0.464-8.325,0.306-16.586,2.211-24.538l18.239,3.344 c19.68,3.608,35.326,19.253,38.933,38.933c1.498,8.168-0.693,16.513-6.01,22.892C112.28,251.824,104.468,255.483,96.162,255.483z M355.945,371.103v25.885h-9.313v-25.885c0-0.237-0.019-0.468-0.035-0.701c-0.136-15.541-4.777-30.555-13.461-43.462 c-4.5-6.687-7.54-14.094-9.038-22.013l-7.912-41.834c-1.026-5.427-6.258-8.99-11.683-7.966c-5.427,1.026-8.993,6.257-7.966,11.683 l7.912,41.834c2.004,10.598,6.073,20.51,12.095,29.461c6.586,9.789,10.068,21.2,10.068,32.998v25.885h-9.313v-25.885 c0-15.79-4.659-31.06-13.474-44.163c-4.5-6.687-7.54-14.094-9.038-22.013l-7.912-41.834c-1.026-5.427-6.26-8.99-11.683-7.966 c-5.427,1.026-8.993,6.257-7.966,11.683l5.406,28.578h-64.271l5.405-28.578c1.026-5.427-2.541-10.657-7.966-11.683 c-5.425-1.028-10.657,2.54-11.683,7.966l-7.912,41.834c-1.499,7.92-4.54,15.327-9.038,22.013 c-8.814,13.101-13.474,28.373-13.474,44.163v25.885h-11.792v-25.885c0-11.799,3.482-23.209,10.068-32.999 c6.022-8.95,10.091-18.862,12.095-29.46l7.912-41.834c1.026-5.427-2.541-10.657-7.966-11.683 c-5.425-1.024-10.657,2.54-11.683,7.966l-7.912,41.834c-1.498,7.919-4.539,15.326-9.038,22.013 c-8.814,13.101-13.474,28.373-13.474,44.162v25.885h-12.304l-0.302-83.279c-0.053-14.547-5.29-28.261-14.62-38.997 c10.991-1.974,21.004-7.726,28.287-16.466c9.127-10.953,12.888-25.277,10.317-39.301c-5.096-27.8-27.197-49.902-54.998-54.998 l-14.796-2.711c4.078-7.946,9.419-15.282,15.905-21.686c16.025-15.825,37.254-24.54,59.776-24.54h13.722 c13.357,30.352,43.477,50.284,77.092,50.284s63.736-19.932,77.092-50.284h7.347c49.301,0,92.603,31.521,107.75,78.438 l4.523,14.008c-6.54-1.726-13.317-2.629-20.174-2.629c-8.234,0-16.358,1.288-24.089,3.76c-5.594-1.737-18.898-7.616-19.697-24.403 c-0.174-3.655-2.331-6.922-5.622-8.52c-3.291-1.598-7.192-1.271-10.172,0.854c-7.936,5.66-13.749,16.141-15.168,27.353 c-0.863,6.813-0.11,13.617,2.119,20.047c-2.755,0.814-5.545,0.843-8.301,0.065c-2.914-0.881-6.072-0.388-8.579,1.345 c-2.529,1.748-4.114,4.562-4.298,7.63c-0.778,13.03,2.533,23.598,9.84,31.411c5.258,5.622,11.538,8.628,16.826,10.241 c0.14,4.667,0.437,10.983,1.069,17.683c2.481,26.266,7.881,34.417,11.728,38.265c1.093,1.093,2.17,2.101,3.229,3.055 C359.203,345.108,355.945,357.922,355.945,371.103z M370.659,219.474c-1.651,1.174-3.252,2.426-4.815,3.731 c-0.088-0.024-0.175-0.053-0.263-0.077c-3.023-4.681-4.035-9.192-4.152-12.932C364.163,213.875,367.341,216.943,370.659,219.474z M360.596,256.473c-0.081-0.001-8.33-0.304-13.439-5.767c-1.602-1.712-2.783-3.847-3.542-6.389c2.521-0.291,5.023-0.857,7.469-1.7 c1.708-0.588,3.425-0.808,5.108-0.769c1.155-0.015,4.384,0.61,4.972,0.828c5.759,1.739,10.426,5.685,11.772,6.905 c1.691,2.278,2.539,4.271,2.916,5.346c0.899,4.6,4.947,8.072,9.809,8.072h0.205c5.523,0,9.999-4.477,9.999-9.999 c0-1.605-0.388-3.117-1.06-4.462c-0.932-2.729-2.691-6.717-5.939-11.047c-0.025-0.034-0.051-0.068-0.078-0.102l-0.442-0.574 l-0.01,0.008c-0.336-0.409-0.717-0.827-1.134-1.251c0.132,0.119,0.257,0.238,0.375,0.358c-0.146-0.148-0.295-0.292-0.447-0.43 c-0.563-0.567-1.206-1.143-1.875-1.717c9.329-5.813,20.157-8.958,31.263-8.958c11.582,0,22.865,3.416,32.457,9.717 c-0.543,0.478-1.064,0.955-1.531,1.427c-0.141,0.128-0.279,0.261-0.414,0.398c0.115-0.117,0.236-0.232,0.365-0.348 c-0.415,0.421-0.793,0.838-1.128,1.244l-0.01-0.008l-0.442,0.574c-0.027,0.036-0.054,0.071-0.081,0.107 c-3.116,4.156-4.861,7.994-5.821,10.71c-0.473,0.975-0.795,2.035-0.929,3.155c-0.062,0.275-0.105,0.491-0.13,0.63l0.079,0.014 c-0.01,0.185-0.028,0.367-0.028,0.554c0,5.523,4.477,9.999,9.999,9.999h0.205c4.87,0,8.921-3.483,9.812-8.091 c0.44-1.134,1.271-2.9,2.743-4.882c2.08-1.887,12.119-10.312,21.85-6.964c2.447,0.843,4.948,1.41,7.471,1.699 c-0.743,2.494-1.894,4.595-3.447,6.289c-5.119,5.581-13.543,5.868-13.535,5.869v0.012c-0.074-0.002-0.147-0.011-0.222-0.011 c-0.02,0-0.04,0-0.059,0c-5.522,0.031-9.972,4.534-9.942,10.055c0.12,21.91-3.247,45.476-7.061,49.442 c-2.835,2.835-5.721,5.143-8.512,7.374c-4.716,3.771-9.511,7.606-13.136,13.23h-37.109c-3.624-5.624-8.419-9.459-13.136-13.23 c-2.791-2.232-5.678-4.54-8.509-7.371c-3.567-3.707-6.738-24.522-7.042-45.108c0.783-1.413,1.235-3.036,1.247-4.766 C370.562,261.021,366.118,256.513,360.596,256.473z"></path> </g> </g> <g> </g> <g> </g> <g> </g> <g> </g> <g> </g> <g> </g> <g> </g> <g> </g> <g> </g> <g> </g> <g> </g> <g> </g> <g> </g> <g> </g> <g> </g> </svg>

<svg width="512" height="512" viewBox="0 0 512 512" fill="none" xmlns="http://www.w3.org/2000/svg">
<g clip-path="url(#clip0)">
<path d="M387.448 287.746H387.243C381.72 287.746 377.244 292.223 377.244 297.745C377.244 303.268 381.721 307.744 387.243 307.744H387.448C392.971 307.744 397.447 303.267 397.447 297.745C397.447 292.223 392.971 287.746 387.448 287.746Z" fill="black"/>
<path d="M445.528 287.746H445.323C439.8 287.746 435.324 292.223 435.324 297.745C435.324 303.268 439.801 307.744 445.323 307.744H445.528C451.051 307.744 455.527 303.267 455.527 297.745C455.528 292.223 451.051 287.746 445.528 287.746Z" fill="black"/>
<path d="M228.368 396.989H228.238C222.715 396.989 218.239 401.466 218.239 406.988C218.239 412.51 222.716 416.987 228.238 416.987H228.368C233.891 416.987 238.367 412.51 238.367 406.988C238.367 401.466 233.89 396.989 228.368 396.989Z" fill="black"/>
<path d="M501.96 396.988H375.944V371.103C375.944 362.901 377.631 354.888 380.869 347.475C383.068 350.66 384.07 354.521 384.07 361.165C384.07 379.573 403.724 386.822 415.338 388.204C415.73 388.25 416.124 388.274 416.519 388.274C417.887 388.274 424.889 387.318 431.776 384.285C446.735 377.696 448.969 366.971 448.969 361.165C448.969 348.787 452.403 346.041 460.699 339.408C463.767 336.955 467.243 334.175 470.863 330.556C474.711 326.709 480.111 318.557 482.592 292.291C483.185 286.015 483.483 280.073 483.633 275.509C489.213 274.033 496.255 271.007 502.051 264.812C509.358 257 512.669 246.431 511.891 233.402C511.706 230.309 510.225 227.438 507.665 225.695C505.104 223.951 502.005 223.454 499.062 224.414C496.059 225.272 493.019 225.185 490.026 224.154C489.906 224.112 489.783 224.08 489.663 224.04C491.892 217.61 492.644 210.807 491.782 203.994C490.363 192.782 484.552 182.301 476.614 176.64C473.636 174.516 469.734 174.189 466.443 175.785C463.151 177.383 460.995 180.651 460.82 184.305C460.501 190.998 458.189 195.952 455.173 199.607L451.201 187.305C433.377 132.102 382.429 95.014 324.419 95.014H169.702H149.165H100.506C53.924 95.014 16.027 132.911 16.027 179.493V264.197C6.624 268.48 0 278.612 0 290.403C0 296.976 2.174 307.599 5.287 316.234C10.413 330.455 17.391 337.665 26.026 337.665C34.661 337.665 41.64 330.455 46.765 316.234C49.878 307.599 52.052 296.977 52.052 290.403C52.052 278.612 45.428 268.48 36.025 264.196V179.492C36.025 149.31 56.872 123.915 84.922 116.926C81.587 119.512 78.386 122.312 75.338 125.321C64.015 136.502 55.515 149.981 50.26 164.642C50.128 164.93 50.007 165.226 49.901 165.531C37.116 202.351 45.513 242.652 71.769 271.144C71.778 271.154 71.786 271.163 71.795 271.173C72.164 271.573 72.523 271.979 72.899 272.374C72.988 272.468 73.086 272.55 73.179 272.639C76.561 276.182 80.201 279.509 84.095 282.581C93.709 290.164 99.249 301.537 99.294 313.783L99.596 396.99H9.999C4.476 396.99 0 401.467 0 406.989C0 412.512 4.477 416.988 9.999 416.988H193.711C199.234 416.988 203.71 412.511 203.71 406.989C203.71 401.466 199.233 396.99 193.711 396.99H183.687V371.104C183.687 359.305 187.168 347.894 193.754 338.106C198.479 331.085 201.982 323.462 204.249 315.388H276.735C279.002 323.462 282.506 331.084 287.23 338.106C293.816 347.896 297.297 359.307 297.297 371.105V396.99H262.31C256.787 396.99 252.311 401.467 252.311 406.989C252.311 412.512 256.788 416.988 262.31 416.988H307.286C307.289 416.988 307.292 416.988 307.296 416.988H336.608H336.63H365.942C365.945 416.988 365.948 416.988 365.952 416.988H501.96C507.483 416.988 511.959 412.511 511.959 406.989C511.959 401.466 507.482 396.988 501.96 396.988ZM26.026 314.205C23.054 307.856 19.998 296.563 19.998 290.403C19.998 285.854 22.758 282.012 26.026 282.012C29.294 282.012 32.053 285.855 32.053 290.403C32.053 296.564 28.998 307.857 26.026 314.205ZM428.969 361.166C428.969 364.455 421.439 367.258 416.518 368.159C411.597 367.258 404.067 364.454 404.067 361.166C404.067 359.722 404.022 358.343 403.941 357.018H429.094C429.013 358.343 428.969 359.722 428.969 361.166ZM472.121 210.316C472 214.158 470.93 218.813 467.712 223.63C466.095 222.257 464.425 220.957 462.713 219.725C466.097 217.169 469.339 214.061 472.121 210.316ZM294.524 115.01C282.978 133.562 262.506 145.296 239.978 145.296C217.451 145.296 196.978 133.562 185.432 115.01H294.524V115.01ZM96.162 255.483H84.613C72.535 241.404 65.272 223.625 64.224 204.813C63.76 196.488 64.53 188.227 66.435 180.275L84.674 183.619C104.354 187.227 120 202.872 123.607 222.552C125.105 230.72 122.914 239.065 117.597 245.444C112.28 251.824 104.468 255.483 96.162 255.483ZM355.945 371.103V396.988H346.632V371.103C346.632 370.866 346.613 370.635 346.597 370.402C346.461 354.861 341.82 339.847 333.136 326.94C328.636 320.253 325.596 312.846 324.098 304.927L316.186 263.093C315.16 257.666 309.928 254.103 304.503 255.127C299.076 256.153 295.51 261.384 296.537 266.81L304.449 308.644C306.453 319.242 310.522 329.154 316.544 338.105C323.13 347.894 326.612 359.305 326.612 371.103V396.988H317.299V371.103C317.299 355.313 312.64 340.043 303.825 326.94C299.325 320.253 296.285 312.846 294.787 304.927L286.875 263.093C285.849 257.666 280.615 254.103 275.192 255.127C269.765 256.153 266.199 261.384 267.226 266.81L272.632 295.388H208.361L213.766 266.81C214.792 261.383 211.225 256.153 205.8 255.127C200.375 254.099 195.143 257.667 194.117 263.093L186.205 304.927C184.706 312.847 181.665 320.254 177.167 326.94C168.353 340.041 163.693 355.313 163.693 371.103V396.988H151.901V371.103C151.901 359.304 155.383 347.894 161.969 338.104C167.991 329.154 172.06 319.242 174.064 308.644L181.976 266.81C183.002 261.383 179.435 256.153 174.01 255.127C168.585 254.103 163.353 257.667 162.327 263.093L154.415 304.927C152.917 312.846 149.876 320.253 145.377 326.94C136.563 340.041 131.903 355.313 131.903 371.102V396.987H119.599L119.297 313.708C119.244 299.161 114.007 285.447 104.677 274.711C115.668 272.737 125.681 266.985 132.964 258.245C142.091 247.292 145.852 232.968 143.281 218.944C138.185 191.144 116.084 169.042 88.283 163.946L73.487 161.235C77.565 153.289 82.906 145.953 89.392 139.549C105.417 123.724 126.646 115.009 149.168 115.009H162.89C176.247 145.361 206.367 165.293 239.982 165.293C273.597 165.293 303.718 145.361 317.074 115.009H324.421C373.722 115.009 417.024 146.53 432.171 193.447L436.694 207.455C430.154 205.729 423.377 204.826 416.52 204.826C408.286 204.826 400.162 206.114 392.431 208.586C386.837 206.849 373.533 200.97 372.734 184.183C372.56 180.528 370.403 177.261 367.112 175.663C363.821 174.065 359.92 174.392 356.94 176.517C349.004 182.177 343.191 192.658 341.772 203.87C340.909 210.683 341.662 217.487 343.891 223.917C341.136 224.731 338.346 224.76 335.59 223.982C332.676 223.101 329.518 223.594 327.011 225.327C324.482 227.075 322.897 229.889 322.713 232.957C321.935 245.987 325.246 256.555 332.553 264.368C337.811 269.99 344.091 272.996 349.379 274.609C349.519 279.276 349.816 285.592 350.448 292.292C352.929 318.558 358.329 326.709 362.176 330.557C363.269 331.65 364.346 332.658 365.405 333.612C359.203 345.108 355.945 357.922 355.945 371.103ZM370.659 219.474C369.008 220.648 367.407 221.9 365.844 223.205C365.756 223.181 365.669 223.152 365.581 223.128C362.558 218.447 361.546 213.936 361.429 210.196C364.163 213.875 367.341 216.943 370.659 219.474ZM360.596 256.473C360.515 256.472 352.266 256.169 347.157 250.706C345.555 248.994 344.374 246.859 343.615 244.317C346.136 244.026 348.638 243.46 351.084 242.617C352.792 242.029 354.509 241.809 356.192 241.848C357.347 241.833 360.576 242.458 361.164 242.676C366.923 244.415 371.59 248.361 372.936 249.581C374.627 251.859 375.475 253.852 375.852 254.927C376.751 259.527 380.799 262.999 385.661 262.999H385.866C391.389 262.999 395.865 258.522 395.865 253C395.865 251.395 395.477 249.883 394.805 248.538C393.873 245.809 392.114 241.821 388.866 237.491C388.841 237.457 388.815 237.423 388.788 237.389L388.346 236.815L388.336 236.823C388 236.414 387.619 235.996 387.202 235.572C387.334 235.691 387.459 235.81 387.577 235.93C387.431 235.782 387.282 235.638 387.13 235.5C386.567 234.933 385.924 234.357 385.255 233.783C394.584 227.97 405.412 224.825 416.518 224.825C428.1 224.825 439.383 228.241 448.975 234.542C448.432 235.02 447.911 235.497 447.444 235.969C447.303 236.097 447.165 236.23 447.03 236.367C447.145 236.25 447.266 236.135 447.395 236.019C446.98 236.44 446.602 236.857 446.267 237.263L446.257 237.255L445.815 237.829C445.788 237.865 445.761 237.9 445.734 237.936C442.618 242.092 440.873 245.93 439.913 248.646C439.44 249.621 439.118 250.681 438.984 251.801C438.922 252.076 438.879 252.292 438.854 252.431L438.933 252.445C438.923 252.63 438.905 252.812 438.905 252.999C438.905 258.522 443.382 262.998 448.904 262.998H449.109C453.979 262.998 458.03 259.515 458.921 254.907C459.361 253.773 460.192 252.007 461.664 250.025C463.744 248.138 473.783 239.713 483.514 243.061C485.961 243.904 488.462 244.471 490.985 244.76C490.242 247.254 489.091 249.355 487.538 251.049C482.419 256.63 473.995 256.917 474.003 256.918V256.93C473.929 256.928 473.856 256.919 473.781 256.919C473.761 256.919 473.741 256.919 473.722 256.919C468.2 256.95 463.75 261.453 463.78 266.974C463.9 288.884 460.533 312.45 456.719 316.416C453.884 319.251 450.998 321.559 448.207 323.79C443.491 327.561 438.696 331.396 435.071 337.02H397.962C394.338 331.396 389.543 327.561 384.826 323.79C382.035 321.558 379.148 319.25 376.317 316.419C372.75 312.712 369.579 291.897 369.275 271.311C370.058 269.898 370.51 268.275 370.522 266.545C370.562 261.021 366.118 256.513 360.596 256.473Z" fill="black"/>
</g>
<defs>
<clipPath id="clip0">
<rect width="512.001" height="512.001" fill="white"/>
</clipPath>
</defs>
</svg>
